X:189
T:Cowboy Waltz
N:Transcribed by Bruce Thomson
R:Waltz
Q:150
M:3/4
L:1/4
K:D
Ade|:â€Dâ€f3|f2f/g/|fed|AFA|â€Gâ€B2B/=c/|BAG|
â€œDâ€(A2A/) B/|Ade|â€Dâ€f3|f2f/g/|fed|AFA|â€Eâ€B2e|e2f|
â€œAâ€e3|Ade|â€Dâ€f3|f2f/g/|fed|AFA|â€Gâ€B2B/=c/|BAG|
â€œDâ€(A2A/)B/|A3|d3/2c/d|â€Aâ€efg|â€Dâ€afd|â€Gâ€b3/2b/ a/g/|
â€œDâ€f3|â€Aâ€f2e|â€Dâ€(d3|d3):||:â€Dâ€DFA|d2c/d/|edg|â€Gâ€B2c/B/|
â€œAâ€Ace|a2a/b/|afe|â€Dâ€f3/2d/ B/A/|DFA|d2c/d/|
edg|â€Gâ€B2c/B/|â€Aâ€Ace|gfe|â€Dâ€(d3|d3):|

